; generated by Slic3r 1.3.0-dev on 2018-01-14 at 21:09:08

; Printer Config Notes: 
; Version 1
; 
; external perimeters extrusion width = 0.44mm (1.59mm^3/s)
; perimeters extrusion width = 0.56mm (4.14mm^3/s)
; infill extrusion width = 0.40mm (3.57mm^3/s)
; solid infill extrusion width = 0.56mm (4.14mm^3/s)
; top infill extrusion width = 0.56mm (3.31mm^3/s)

M107 ; disable fan
M190 S60 ; set bed temperature and wait for it to be reached
G28 ; home all axes
M82 ; use absolute distances for extrusion
G92 E0 ; reset extrusion distance
G0 Z35 F1000; move up a bit
G0 Y120 F6000; move head away from front edge
M109 S225; heat up
G1 E20 F500; extrude 20mm to fill nozzle
G28 Z0; move down again


; Filament gcode

G21 ; set units to millimeters
G90 ; use absolute coordinates
M82 ; use absolute distances for extrusion
G92 E0 ; reset extrusion distance
;Layer  0
G1 E-3.00000 F4800.00000 ; retract extruder 0
G92 E0 ; reset extrusion distance
G1 Z0.200 F7200.000 ; move to next layer (0)
G1 X8.668 Y18.922 F7200.000 ; move to first skirt point
G1 E3.00000 F4800.00000 ; unretract extruder 0
M204 S1100 ; adjust acceleration
G1 F1500
G1 X10.242 Y18.204 E3.07436 ; skirt
G1 X11.369 Y17.851 E3.12514 ; skirt
G1 X11.989 Y17.693 E3.15268 ; skirt
G1 X12.764 Y17.529 E3.18672 ; skirt
G1 X14.474 Y17.366 E3.26058 ; skirt
G1 X17.097 Y17.366 E3.37334 ; skirt
G1 X18.747 Y17.518 E3.44462 ; skirt
G1 X19.892 Y17.769 E3.49501 ; skirt
G1 X21.120 Y18.133 E3.55008 ; skirt
G1 X21.388 Y18.225 E3.56227 ; skirt
G1 X22.903 Y18.922 E3.63394 ; skirt
G1 X25.174 Y20.233 E3.74670 ; skirt
G1 X26.564 Y21.222 E3.82003 ; skirt
G1 X27.124 Y21.722 E3.85229 ; skirt
G1 X27.583 Y22.168 E3.87984 ; skirt
G1 X28.412 Y23.066 E3.93236 ; skirt
G1 X29.424 Y24.484 E4.00728 ; skirt
G1 X30.736 Y26.755 E4.12004 ; skirt
G1 X31.464 Y28.362 E4.19591 ; skirt
G1 X31.567 Y28.664 E4.20962 ; skirt
G1 X31.921 Y29.894 E4.26464 ; skirt
G1 X32.135 Y30.886 E4.30827 ; skirt
G1 X32.291 Y32.458 E4.37619 ; skirt
G1 X32.606 Y59.997 E5.56032 ; skirt
G1 X32.606 Y62.723 E5.67753 ; skirt
G1 X32.449 Y64.400 E5.74997 ; skirt
G1 X32.316 Y65.051 E5.77854 ; skirt
G1 X32.071 Y66.009 E5.82105 ; skirt
G1 X31.781 Y66.917 E5.86202 ; skirt
G1 X31.051 Y68.529 E5.93812 ; skirt
G1 X29.739 Y70.800 E6.05088 ; skirt
G1 X28.727 Y72.218 E6.12579 ; skirt
G1 X27.898 Y73.116 E6.17831 ; skirt
G1 X27.223 Y73.760 E6.21842 ; skirt
G1 X26.879 Y74.062 E6.23813 ; skirt
G1 X25.489 Y75.051 E6.31146 ; skirt
G1 X23.218 Y76.362 E6.42422 ; skirt
G1 X21.699 Y77.060 E6.49610 ; skirt
G1 X21.435 Y77.151 E6.50807 ; skirt
G1 X20.207 Y77.515 E6.56314 ; skirt
G1 X19.072 Y77.764 E6.61313 ; skirt
G1 X17.412 Y77.918 E6.68481 ; skirt
G1 X14.789 Y77.918 E6.79758 ; skirt
G1 X13.079 Y77.754 E6.87141 ; skirt
G1 X12.590 Y77.655 E6.89288 ; skirt
G1 X11.684 Y77.433 E6.93300 ; skirt
G1 X10.558 Y77.080 E6.98372 ; skirt
G1 X8.983 Y76.362 E7.05816 ; skirt
G1 X6.712 Y75.050 E7.17092 ; skirt
G1 X5.348 Y74.084 E7.24279 ; skirt
G1 X4.742 Y73.543 E7.27772 ; skirt
G1 X4.283 Y73.096 E7.30525 ; skirt
G1 X3.433 Y72.171 E7.35928 ; skirt
G1 X2.461 Y70.800 E7.43152 ; skirt
G1 X1.150 Y68.529 E7.54428 ; skirt
G1 X0.444 Y66.988 E7.61713 ; skirt
G1 X0.222 Y66.316 E7.64758 ; skirt
G1 X0.044 Y65.700 E7.67512 ; skirt
G1 X-0.236 Y64.468 E7.72947 ; skirt
G1 X-0.405 Y62.826 E7.80043 ; skirt
G1 X-0.720 Y35.287 E8.98456 ; skirt
G1 X-0.721 Y32.561 E9.10177 ; skirt
G1 X-0.550 Y30.814 E9.17724 ; skirt
G1 X-0.271 Y29.583 E9.23149 ; skirt
G1 X0.070 Y28.464 E9.28179 ; skirt
G1 X0.129 Y28.294 E9.28953 ; skirt
G1 X0.835 Y26.755 E9.36235 ; skirt
G1 X2.146 Y24.483 E9.47511 ; skirt
G1 X3.116 Y23.115 E9.54722 ; skirt
G1 X3.968 Y22.188 E9.60136 ; skirt
G1 X4.427 Y21.741 E9.62890 ; skirt
G1 X5.021 Y21.210 E9.66315 ; skirt
G1 X6.397 Y20.233 E9.73570 ; skirt
G1 X8.616 Y18.952 E9.84589 ; skirt
G1 X8.927 Y19.370 F7200.000 ; move to first skirt point
G1 F1500
G1 X10.410 Y18.693 E9.91600 ; skirt
G1 X11.502 Y18.351 E9.96518 ; skirt
G1 X12.103 Y18.197 E9.99187 ; skirt
G1 X12.862 Y18.037 E10.02521 ; skirt
G1 X14.474 Y17.883 E10.09484 ; skirt
G1 X17.097 Y17.883 E10.20760 ; skirt
G1 X18.653 Y18.027 E10.27480 ; skirt
G1 X19.769 Y18.271 E10.32392 ; skirt
G1 X20.959 Y18.624 E10.37727 ; skirt
G1 X21.217 Y18.713 E10.38900 ; skirt
G1 X22.644 Y19.370 E10.45657 ; skirt
G1 X24.916 Y20.681 E10.56933 ; skirt
G1 X26.226 Y21.613 E10.63847 ; skirt
G1 X26.774 Y22.103 E10.67008 ; skirt
G1 X27.220 Y22.535 E10.69676 ; skirt
G1 X28.022 Y23.405 E10.74765 ; skirt
G1 X28.977 Y24.742 E10.81829 ; skirt
G1 X30.288 Y27.014 E10.93105 ; skirt
G1 X30.975 Y28.529 E11.00257 ; skirt
G1 X31.077 Y28.830 E11.01627 ; skirt
G1 X31.420 Y30.022 E11.06958 ; skirt
G1 X31.627 Y30.982 E11.11179 ; skirt
G1 X31.774 Y32.464 E11.17582 ; skirt
G1 X32.089 Y60.100 E12.36415 ; skirt
G1 X32.089 Y62.723 E12.47691 ; skirt
G1 X31.941 Y64.304 E12.54520 ; skirt
G1 X31.663 Y65.545 E12.59988 ; skirt
G1 X31.292 Y66.751 E12.65411 ; skirt
G1 X30.603 Y68.270 E12.72585 ; skirt
G1 X29.292 Y70.542 E12.83861 ; skirt
G1 X28.337 Y71.878 E12.90924 ; skirt
G1 X27.763 Y72.513 E12.94602 ; skirt
G1 X27.089 Y73.181 E12.98681 ; skirt
G1 X26.541 Y73.671 E13.01844 ; skirt
G1 X25.230 Y74.603 E13.08757 ; skirt
G1 X22.959 Y75.914 E13.20033 ; skirt
G1 X21.527 Y76.572 E13.26810 ; skirt
G1 X21.274 Y76.660 E13.27962 ; skirt
G1 X20.084 Y77.013 E13.33298 ; skirt
G1 X18.977 Y77.256 E13.38172 ; skirt
G1 X17.412 Y77.401 E13.44930 ; skirt
G1 X14.789 Y77.400 E13.56206 ; skirt
G1 X13.177 Y77.247 E13.63167 ; skirt
G1 X12.704 Y77.151 E13.65245 ; skirt
G1 X11.817 Y76.933 E13.69171 ; skirt
G1 X10.727 Y76.591 E13.74084 ; skirt
G1 X9.241 Y75.914 E13.81101 ; skirt
G1 X6.970 Y74.603 E13.92377 ; skirt
G1 X5.684 Y73.692 E13.99153 ; skirt
G1 X5.098 Y73.169 E14.02530 ; skirt
G1 X4.654 Y72.736 E14.05198 ; skirt
G1 X3.825 Y71.834 E14.10465 ; skirt
G1 X2.909 Y70.542 E14.17274 ; skirt
G1 X1.598 Y68.270 E14.28551 ; skirt
G1 X0.932 Y66.818 E14.35419 ; skirt
G1 X0.714 Y66.159 E14.38403 ; skirt
G1 X0.543 Y65.563 E14.41071 ; skirt
G1 X0.272 Y64.368 E14.46339 ; skirt
G1 X0.112 Y62.820 E14.53028 ; skirt
G1 X-0.203 Y35.281 E15.71442 ; skirt
G1 X-0.204 Y32.561 E15.83137 ; skirt
G1 X-0.043 Y30.914 E15.90252 ; skirt
G1 X0.228 Y29.721 E15.95510 ; skirt
G1 X0.558 Y28.634 E16.00396 ; skirt
G1 X0.618 Y28.465 E16.01167 ; skirt
G1 X1.283 Y27.013 E16.08032 ; skirt
G1 X2.594 Y24.742 E16.19308 ; skirt
G1 X3.508 Y23.452 E16.26107 ; skirt
G1 X4.338 Y22.548 E16.31384 ; skirt
G1 X4.783 Y22.115 E16.34052 ; skirt
G1 X5.358 Y21.602 E16.37365 ; skirt
G1 X6.655 Y20.681 E16.44205 ; skirt
G1 X8.875 Y19.400 E16.55223 ; skirt
G1 F5760
G1 X10.410 Y18.693 E15.21404 ; wipe and retract
G1 F5760
G1 X10.639 Y18.615 E15.02276 ; wipe and retract
G1 F5760
G1 X10.907 Y18.527 E14.79965 ; wipe and retract
G1 F5760
G1 X10.954 Y18.513 E14.76055 ; wipe and retract
G1 F5760
G1 X10.954 Y18.513 E14.76048 ; wipe and retract
G1 F5760
G1 X11.186 Y18.441 E14.56810 ; wipe and retract
G1 F5760
G1 X11.502 Y18.351 E14.30827 ; wipe and retract
G1 F5760
G1 X11.549 Y18.338 E14.26918 ; wipe and retract
G1 F5760
G1 X11.549 Y18.338 E14.26912 ; wipe and retract
G1 F5760
G1 X11.784 Y18.275 E14.07674 ; wipe and retract
G1 F5760
G1 X12.103 Y18.197 E13.81687 ; wipe and retract
G1 F5760
G1 X12.244 Y18.165 E13.70223 ; wipe and retract
G1 E13.55223 F4800.00000 ; retract extruder 0
G92 E0 ; reset extrusion distance
G1 X17.562 Y40.548 F7200.000 ; move to first perimeter point
G1 E3.00000 F4800.00000 ; unretract extruder 0
G1 F1200
G1 X17.438 Y40.575 E3.00544 ; perimeter
G1 X17.175 Y40.307 E3.02158 ; perimeter
G1 X16.952 Y40.134 E3.03373 ; perimeter
G1 X16.707 Y39.993 E3.04588 ; perimeter
G1 X16.445 Y39.886 E3.05803 ; perimeter
G1 X16.172 Y39.815 E3.07018 ; perimeter
G1 X15.891 Y39.782 E3.08233 ; perimeter
G1 X15.609 Y39.787 E3.09448 ; perimeter
G1 X15.329 Y39.830 E3.10663 ; perimeter
G1 X15.047 Y39.913 E3.11928 ; perimeter
G1 X14.687 Y40.089 E3.13651 ; perimeter
G1 X14.440 Y40.268 E3.14965 ; perimeter
G1 X14.141 Y40.572 E3.16798 ; perimeter
G1 X13.863 Y40.508 E3.18025 ; perimeter
G1 X13.780 Y40.163 E3.19551 ; perimeter
G1 X13.622 Y39.794 E3.21275 ; perimeter
G1 X13.462 Y39.547 E3.22539 ; perimeter
G1 X13.278 Y39.333 E3.23754 ; perimeter
G1 X13.058 Y39.138 E3.25019 ; perimeter
G1 X12.718 Y38.926 E3.26742 ; perimeter
G1 X12.445 Y38.814 E3.28006 ; perimeter
G1 X12.172 Y38.744 E3.29221 ; perimeter
G1 X11.891 Y38.710 E3.30437 ; perimeter
G1 X11.609 Y38.715 E3.31652 ; perimeter
G1 X11.329 Y38.758 E3.32867 ; perimeter
G1 X11.004 Y38.854 E3.34323 ; perimeter
G1 X10.802 Y38.648 E3.35563 ; perimeter
G1 X10.892 Y38.363 E3.36849 ; perimeter
G1 X10.939 Y38.084 E3.38064 ; perimeter
G1 X10.949 Y37.802 E3.39279 ; perimeter
G1 X10.920 Y37.520 E3.40494 ; perimeter
G1 X10.851 Y37.235 E3.41759 ; perimeter
G1 X10.693 Y36.866 E3.43482 ; perimeter
G1 X10.534 Y36.619 E3.44747 ; perimeter
G1 X10.349 Y36.405 E3.45962 ; perimeter
G1 X10.130 Y36.210 E3.47226 ; perimeter
G1 X9.789 Y35.998 E3.48949 ; perimeter
G1 X9.517 Y35.886 E3.50214 ; perimeter
G1 X9.157 Y35.793 E3.51812 ; perimeter
G1 X9.074 Y35.521 E3.53035 ; perimeter
G1 X9.278 Y35.340 E3.54210 ; perimeter
G1 X9.462 Y35.125 E3.55425 ; perimeter
G1 X9.615 Y34.888 E3.56640 ; perimeter
G1 X9.735 Y34.632 E3.57855 ; perimeter
G1 X9.823 Y34.352 E3.59119 ; perimeter
G1 X9.877 Y33.954 E3.60843 ; perimeter
G1 X9.868 Y33.661 E3.62107 ; perimeter
G1 X9.820 Y33.382 E3.63322 ; perimeter
G1 X9.732 Y33.101 E3.64587 ; perimeter
G1 X9.549 Y32.745 E3.66310 ; perimeter
G1 X9.366 Y32.500 E3.67624 ; perimeter
G1 X9.074 Y32.222 E3.69359 ; perimeter
G1 X9.157 Y31.952 E3.70574 ; perimeter
G1 X9.517 Y31.858 E3.72172 ; perimeter
G1 X9.779 Y31.751 E3.73388 ; perimeter
G1 X10.034 Y31.604 E3.74652 ; perimeter
G1 X10.342 Y31.348 E3.76375 ; perimeter
G1 X10.534 Y31.125 E3.77640 ; perimeter
G1 X10.688 Y30.886 E3.78866 ; perimeter
G1 X10.818 Y30.604 E3.80201 ; perimeter
G1 X10.919 Y30.234 E3.81848 ; perimeter
G1 X10.949 Y29.943 E3.83107 ; perimeter
G1 X10.939 Y29.661 E3.84322 ; perimeter
G1 X10.892 Y29.382 E3.85537 ; perimeter
G1 X10.802 Y29.097 E3.86823 ; perimeter
G1 X11.004 Y28.891 E3.88063 ; perimeter
G1 X11.329 Y28.987 E3.89520 ; perimeter
G1 X11.609 Y29.030 E3.90735 ; perimeter
G1 X11.891 Y29.034 E3.91950 ; perimeter
G1 X12.172 Y29.001 E3.93165 ; perimeter
G1 X12.457 Y28.927 E3.94429 ; perimeter
G1 X12.822 Y28.763 E3.96153 ; perimeter
G1 X13.069 Y28.598 E3.97428 ; perimeter
G1 X13.299 Y28.390 E3.98763 ; perimeter
G1 X13.538 Y28.090 E4.00410 ; perimeter
G1 X13.680 Y27.834 E4.01669 ; perimeter
G1 X13.782 Y27.571 E4.02884 ; perimeter
G1 X13.860 Y27.248 E4.04309 ; perimeter
G1 X14.137 Y27.164 E4.05553 ; perimeter
G1 X14.343 Y27.389 E4.06866 ; perimeter
G1 X14.561 Y27.570 E4.08081 ; perimeter
G1 X14.803 Y27.721 E4.09307 ; perimeter
G1 X15.087 Y27.846 E4.10642 ; perimeter
G1 X15.458 Y27.940 E4.12289 ; perimeter
G1 X15.750 Y27.965 E4.13548 ; perimeter
G1 X16.032 Y27.951 E4.14763 ; perimeter
G1 X16.321 Y27.896 E4.16027 ; perimeter
G1 X16.697 Y27.757 E4.17751 ; perimeter
G1 X16.952 Y27.610 E4.19015 ; perimeter
G1 X17.175 Y27.437 E4.20230 ; perimeter
G1 X17.438 Y27.169 E4.21844 ; perimeter
G1 X17.715 Y27.245 E4.23077 ; perimeter
G1 X17.776 Y27.532 E4.24340 ; perimeter
G1 X17.917 Y27.889 E4.25988 ; perimeter
G1 X18.069 Y28.142 E4.27257 ; perimeter
G1 X18.265 Y28.383 E4.28593 ; perimeter
G1 X18.552 Y28.636 E4.30240 ; perimeter
G1 X18.801 Y28.791 E4.31499 ; perimeter
G1 X19.058 Y28.907 E4.32714 ; perimeter
G1 X19.332 Y28.988 E4.33940 ; perimeter
G1 X19.639 Y29.032 E4.35275 ; perimeter
G1 X20.022 Y29.024 E4.36922 ; perimeter
G1 X20.310 Y28.970 E4.38181 ; perimeter
G1 X20.556 Y28.888 E4.39298 ; perimeter
G1 X20.765 Y29.083 E4.40525 ; perimeter
G1 X20.663 Y29.451 E4.42168 ; perimeter
G1 X20.625 Y29.731 E4.43383 ; perimeter
G1 X20.625 Y30.014 E4.44598 ; perimeter
G1 X20.663 Y30.294 E4.45813 ; perimeter
G1 X20.741 Y30.573 E4.47058 ; perimeter
G1 X20.896 Y30.914 E4.48669 ; perimeter
G1 X21.079 Y31.180 E4.50060 ; perimeter
G1 X21.279 Y31.398 E4.51331 ; perimeter
G1 X21.596 Y31.643 E4.53054 ; perimeter
G1 X21.856 Y31.781 E4.54319 ; perimeter
G1 X22.121 Y31.880 E4.55534 ; perimeter
G1 X22.424 Y31.947 E4.56870 ; perimeter
G1 X22.487 Y32.225 E4.58095 ; perimeter
G1 X22.244 Y32.456 E4.59536 ; perimeter
G1 X22.067 Y32.677 E4.60751 ; perimeter
G1 X21.922 Y32.919 E4.61966 ; perimeter
G1 X21.811 Y33.179 E4.63181 ; perimeter
G1 X21.735 Y33.451 E4.64396 ; perimeter
G1 X21.697 Y33.734 E4.65622 ; perimeter
G1 X21.699 Y34.044 E4.66958 ; perimeter
G1 X21.765 Y34.421 E4.68605 ; perimeter
G1 X21.862 Y34.698 E4.69864 ; perimeter
G1 X21.996 Y34.960 E4.71128 ; perimeter
G1 X22.236 Y35.281 E4.72851 ; perimeter
G1 X22.487 Y35.519 E4.74342 ; perimeter
G1 X22.424 Y35.797 E4.75567 ; perimeter
G1 X22.109 Y35.867 E4.76953 ; perimeter
G1 X21.739 Y36.019 E4.78676 ; perimeter
G1 X21.489 Y36.175 E4.79941 ; perimeter
G1 X21.263 Y36.363 E4.81205 ; perimeter
G1 X21.002 Y36.667 E4.82929 ; perimeter
G1 X20.850 Y36.919 E4.84193 ; perimeter
G1 X20.739 Y37.179 E4.85408 ; perimeter
G1 X20.663 Y37.451 E4.86623 ; perimeter
G1 X20.625 Y37.731 E4.87838 ; perimeter
G1 X20.625 Y38.014 E4.89053 ; perimeter
G1 X20.663 Y38.294 E4.90268 ; perimeter
G1 X20.765 Y38.662 E4.91911 ; perimeter
G1 X20.556 Y38.856 E4.93138 ; perimeter
G1 X20.310 Y38.774 E4.94255 ; perimeter
G1 X20.032 Y38.722 E4.95470 ; perimeter
G1 X19.750 Y38.708 E4.96685 ; perimeter
G1 X19.457 Y38.733 E4.97950 ; perimeter
G1 X19.069 Y38.833 E4.99673 ; perimeter
G1 X18.801 Y38.954 E5.00938 ; perimeter
G1 X18.561 Y39.103 E5.02153 ; perimeter
G1 X18.343 Y39.283 E5.03368 ; perimeter
G1 X18.144 Y39.500 E5.04632 ; perimeter
G1 X17.920 Y39.846 E5.06405 ; perimeter
G1 X17.771 Y40.230 E5.08178 ; perimeter
G1 X17.715 Y40.500 E5.09360 ; perimeter
G1 X17.619 Y40.530 E5.09793 ; perimeter
G1 F5760
G1 X17.438 Y40.575 E4.95042 ; wipe and retract
G1 F5760
G1 X17.175 Y40.307 E4.65325 ; wipe and retract
G1 F5760
G1 X16.952 Y40.134 E4.42951 ; wipe and retract
G1 F5760
G1 X16.707 Y39.993 E4.20579 ; wipe and retract
G1 F5760
G1 X16.445 Y39.886 E3.98206 ; wipe and retract
G1 F5760
G1 X16.172 Y39.815 E3.75834 ; wipe and retract
G1 F5760
G1 X15.891 Y39.782 E3.53462 ; wipe and retract
G1 F5760
G1 X15.609 Y39.787 E3.31090 ; wipe and retract
G1 F5760
G1 X15.329 Y39.830 E3.08717 ; wipe and retract
G1 F5760
G1 X15.047 Y39.913 E2.85434 ; wipe and retract
G1 F5760
G1 X14.687 Y40.089 E2.53703 ; wipe and retract
G1 F5760
G1 X14.440 Y40.268 E2.29509 ; wipe and retract
G1 F5760
G1 X14.398 Y40.311 E2.24793 ; wipe and retract
G1 E2.09793 F4800.00000 ; retract extruder 0
G92 E0 ; reset extrusion distance
G1 X21.324 Y38.721 F7200.000 ; move to first perimeter point
G1 E3.00000 F4800.00000 ; unretract extruder 0
G1 F600
G1 X21.069 Y39.003 E3.01256 ; perimeter
G1 X20.640 Y39.403 E3.03192 ; perimeter
G1 X20.405 Y39.287 E3.04058 ; perimeter
G1 X20.195 Y39.218 E3.04787 ; perimeter
G1 X19.978 Y39.177 E3.05516 ; perimeter
G1 X19.758 Y39.166 E3.06244 ; perimeter
G1 X19.534 Y39.185 E3.06986 ; perimeter
G1 X19.221 Y39.266 E3.08053 ; perimeter
G1 X19.016 Y39.358 E3.08795 ; perimeter
G1 X18.829 Y39.475 E3.09523 ; perimeter
G1 X18.659 Y39.616 E3.10252 ; perimeter
G1 X18.507 Y39.781 E3.10993 ; perimeter
G1 X18.329 Y40.056 E3.12074 ; perimeter
G1 X18.210 Y40.360 E3.13154 ; perimeter
G1 X18.165 Y40.580 E3.13895 ; perimeter
G1 X18.148 Y40.843 E3.14765 ; perimeter
G1 X17.680 Y40.990 E3.16383 ; perimeter
G1 X17.215 Y41.093 E3.17957 ; perimeter
G1 X17.160 Y40.987 E3.18350 ; perimeter
G1 X17.026 Y40.808 E3.19089 ; perimeter
G1 X16.871 Y40.650 E3.19819 ; perimeter
G1 X16.696 Y40.515 E3.20548 ; perimeter
G1 X16.505 Y40.404 E3.21277 ; perimeter
G1 X16.301 Y40.321 E3.22005 ; perimeter
G1 X16.087 Y40.266 E3.22734 ; perimeter
G1 X15.868 Y40.240 E3.23463 ; perimeter
G1 X15.647 Y40.243 E3.24192 ; perimeter
G1 X15.429 Y40.277 E3.24921 ; perimeter
G1 X15.214 Y40.340 E3.25662 ; perimeter
G1 X14.924 Y40.483 E3.26730 ; perimeter
G1 X14.738 Y40.616 E3.27483 ; perimeter
G1 X14.512 Y40.847 E3.28551 ; perimeter
G1 X14.344 Y41.088 E3.29523 ; perimeter
G1 X13.752 Y40.951 E3.31528 ; perimeter
G1 X13.414 Y40.842 E3.32700 ; perimeter
